themes/customTheme/static/svg/LinkedIn.svg

<svg height="76.248001" width="75.766998" xmlns="http://www.w3.org/2000/svg"><path d="m5.5996094 0c-3.0923437 0-5.5996094 2.4471627-5.5996094 5.4628906v65.3222654c0 3.016747 2.5072657 5.462891 5.5996094 5.462891h64.5683596c3.092242 0 5.599609-2.446144 5.599609-5.462891v-65.3222654c0-3.0157279-2.507367-5.4628906-5.599609-5.4628906zm11.7207026 12.798828c3.915047 0 6.326017 2.570789 6.400391 5.949219 0 3.304056-2.483864 5.949219-6.474609 5.949219h-.07617c-3.840469 0-6.322266-2.645163-6.322266-5.949219 0-3.37843 2.558018-5.949219 6.472656-5.949219zm33.736329 15.791016c7.529233 0 13.175781 4.920668 13.175781 15.496094v19.742187h-11.44336v-18.419922c0-4.628531-1.655852-7.785156-5.796874-7.785156-3.161422 0-5.043807 2.127601-5.871094 4.183594-.302184.735593-.376953 1.763953-.376953 2.792968v19.228516h-11.44336s.150175-31.20094 0-34.431641h11.44336v4.88086c1.519599-2.346579 4.233263-5.6875 10.3125-5.6875zm-10.3125 5.6875c-.02361.03646-.05314.07732-.07617.113281h.07617zm-29.220703-4.88086h11.443359v34.431641h-11.443359z" fill="#fff" transform="translate(0 -.000004)"/></svg>

<?xml version="1.0" encoding="UTF-8" standalone="no"?>
<!-- Created with Inkscape (http://www.inkscape.org/) -->

<svg
   width="75.766998"
   height="76.248001"
   id="svg3070"
   version="1.1"
   inkscape:version="1.1.2 (0a00cf5339, 2022-02-04)"
   sodipodi:docname="LinkedIn.svg"
   xmlns:inkscape="http://www.inkscape.org/namespaces/inkscape"
   xmlns:sodipodi="http://sodipodi.sourceforge.net/DTD/sodipodi-0.dtd"
   xmlns="http://www.w3.org/2000/svg"
   xmlns:svg="http://www.w3.org/2000/svg"
   xmlns:rdf="http://www.w3.org/1999/02/22-rdf-syntax-ns#"
   xmlns:cc="http://creativecommons.org/ns#"
   xmlns:dc="http://purl.org/dc/elements/1.1/">
  <defs
     id="defs3072" />
  <sodipodi:namedview
     id="base"
     pagecolor="#ffffff"
     bordercolor="#666666"
     borderopacity="1.0"
     inkscape:pageopacity="0.0"
     inkscape:pageshadow="2"
     inkscape:zoom="3.959798"
     inkscape:cx="48.866129"
     inkscape:cy="53.538085"
     inkscape:document-units="px"
     inkscape:current-layer="g3019"
     showgrid="false"
     fit-margin-top="0"
     fit-margin-left="0"
     fit-margin-right="0"
     fit-margin-bottom="0"
     inkscape:window-width="1366"
     inkscape:window-height="731"
     inkscape:window-x="0"
     inkscape:window-y="0"
     inkscape:window-maximized="1"
     inkscape:pagecheckerboard="0" />
  <metadata
     id="metadata3075">
    <rdf:RDF>
      <cc:Work
         rdf:about="">
        <dc:format>image/svg+xml</dc:format>
        <dc:type
           rdf:resource="http://purl.org/dc/dcmitype/StillImage" />
      </cc:Work>
    </rdf:RDF>
  </metadata>
  <g
     inkscape:label="Layer 1"
     inkscape:groupmode="layer"
     id="layer1"
     transform="translate(-200.55198,-393.96227)">
    <g
       transform="matrix(1.018827,0,0,-1.018827,-43.283682,496.24944)"
       id="g3019">
      <path
         id="path14"
         style="fill:#ffffff;fill-opacity:1;fill-rule:nonzero;stroke:none;stroke-width:1.01883"
         d="M 5.5996094,0 C 2.5072657,0 0,2.4471627 0,5.4628906 V 70.785156 c 0,3.016747 2.5072657,5.462891 5.5996094,5.462891 H 70.167969 c 3.092242,0 5.599609,-2.446144 5.599609,-5.462891 V 5.4628906 C 75.767578,2.4471627 73.260211,0 70.167969,0 Z M 17.320312,12.798828 c 3.915047,0 6.326017,2.570789 6.400391,5.949219 0,3.304056 -2.483864,5.949219 -6.474609,5.949219 h -0.07617 c -3.840469,0 -6.322266,-2.645163 -6.322266,-5.949219 0,-3.37843 2.558018,-5.949219 6.472656,-5.949219 z m 33.736329,15.791016 c 7.529233,0 13.175781,4.920668 13.175781,15.496094 V 63.828125 H 52.789062 V 45.408203 c 0,-4.628531 -1.655852,-7.785156 -5.796874,-7.785156 -3.161422,0 -5.043807,2.127601 -5.871094,4.183594 -0.302184,0.735593 -0.376953,1.763953 -0.376953,2.792968 v 19.228516 h -11.44336 c 0,0 0.150175,-31.20094 0,-34.431641 h 11.44336 v 4.88086 c 1.519599,-2.346579 4.233263,-5.6875 10.3125,-5.6875 z m -10.3125,5.6875 c -0.02361,0.03646 -0.05314,0.07732 -0.07617,0.113281 h 0.07617 z M 11.523438,29.396484 H 22.966797 V 63.828125 H 11.523438 Z"
         transform="matrix(0.98152091,0,0,-0.98152091,239.3298,100.397)" />
    </g>
  </g>
</svg>
